icon-themes/breeze_svg/cmd/32/polygon_diagonal.svg

<svg viewBox="0 0 32 32" xmlns="http://www.w3.org/2000/svg"><path d="m4 4v12 12h24v-12h-12v-12zm1 1h10v12h12v10h-12-10z" fill="#4d4d4d"/><path d="m5 5v22h9.427734 12.572266v-10h-12v-12z" fill="#b3b3b3"/></svg>

<svg xmlns="http://www.w3.org/2000/svg" viewBox="0 0 32 32">
 <path 
     style="fill:#4d4d4d" 
     d="M 4 4 L 4 16 L 4 28 L 28 28 L 28 16 L 16 16 L 16 4 L 4 4 z M 5 5 L 15 5 L 15 17 L 27 17 L 27 27 L 15 27 L 5 27 L 5 5 z "
     />
 <path 
     style="fill:#b3b3b3" 
     d="M 5 5 L 5 27 L 14.427734 27 L 27 27 L 27 17 L 15 17 L 15 5 L 5 5 z "
     />
</svg>
